src/Icon/svgs/TextH3.svg

<svg width="24" height="24" viewBox="0 0 24 24" fill="none" xmlns="http://www.w3.org/2000/svg">
<path d="M2.5 2H4.5V11H13.5V2H15.5V22H13.5V13H4.5V22H2.5V2Z" fill="#1B1C1D"/>
<path d="M20.25 13.5C19.25 13.5 18.7539 14.0604 18.75 14.7542L17.25 14.7458C17.2585 13.2269 18.5 12 20.25 12C22 12 23.25 13.2318 23.25 14.7512C23.25 15.7501 23 16.5168 22.25 17C23 17.4832 23.25 18.2499 23.25 19.2488C23.25 20.7682 22 22 20.25 22C18.5 22 17.2585 20.7731 17.25 19.2542L18.75 19.2458C18.7539 19.9396 19.25 20.5 20.25 20.5C21.1 20.5 21.75 20 21.75 19.05C21.75 18.25 21.0704 17.7499 20.5 17.75H19V16.25H20.5C21.0704 16.2501 21.75 15.75 21.75 14.95C21.75 14 21.1 13.5 20.25 13.5Z" fill="#1B1C1D"/>
</svg>

<svg xmlns="http://www.w3.org/2000/svg" width="24" height="24" fill="#1b1c1d"  xmlns:v="https://vecta.io/nano"><path d="M2.5 2h2v9h9V2h2v20h-2v-9h-9v9h-2V2zm17.75 11.5c-1 0-1.496.56-1.5 1.254l-1.5-.008c.009-1.519 1.25-2.746 3-2.746s3 1.232 3 2.751c0 .999-.25 1.766-1 2.249.75.483 1 1.25 1 2.249 0 1.519-1.25 2.751-3 2.751s-2.991-1.227-3-2.746l1.5-.008c.004.694.5 1.254 1.5 1.254.85 0 1.5-.5 1.5-1.45a1.3 1.3 0 0 0-1.25-1.3H19v-1.5h1.5a1.3 1.3 0 0 0 1.25-1.3c0-.95-.65-1.45-1.5-1.45z"/></svg>
